X: 20810
T: Johnny The Tailor's Fancy
R: slide
M: 12/8
K: Gmajor
|B3 B2A Bcd edB|A2D A2D A/B/cA GED|
B3 B2A Bcd edB|1 A2F DFA G3 e2d:|2 A2F DFA G3 B2c||
|:d2g gfe d2B GBd|e2a a2g faf def|
g3 gfe dB/c/d Bcd|1 efg agf g3 g2e:|2 efg agf g2d e2d||

